X: 1
T: Scottish Reel 1 - Em
R: reel
M: 4/4
L: 1/8
K: Em
|: "Em"BE~E2 EDB,E | "G"DB,A,B DEFG | "D"AD~D2 FEDF | "(A)"ABdA "(Bm)"BdAF | 
   "Em"BE~E2 EDB,E | "G"DB,A,B DEFG | "D"AD~D2 FEDF | ABdF "Em"E2 E2 :|
|  "Em"B2ef "G"gfeg | "D"fedf edBA | "D/F#"(3Bcd AG "D/E"FDDF | "D/D"ABdA "Bm"BdAd |
   "Em"B2ef "G"gfeg | "D"fedf edBA | "D/F#"(3Bcd AG "D/E"FDDF | "D/D"ABdF "Em"E2 E2 |
   "Em"B2ef "G"gfeg | "D"fedf edBA | "D/F#"(3Bcd AG "D/E"FDDF | "D/D"ABdA "Bm"BdAF |
   "Em"BE~E2 EDB,E | "G"DB,A,B DEFG | "D"AD~D2 FEDF | ABdF "Em"E2 E2 ||
W: "^Walking Bass part from F# -> D"

